source/img/about-us/seo-element-3.svg

<svg width="61" height="78" viewBox="0 0 61 78" fill="none" xmlns="http://www.w3.org/2000/svg">
<path d="M36.2647 38.0281L34.1602 40.0479L39.8497 46.0101L41.9542 43.9903L36.2647 38.0281Z" fill="#464646"/>
<path d="M38.8284 40.7141L36.6921 38.5317C36.3758 38.8856 36.0405 39.2307 35.6786 39.5631C35.3167 39.8955 34.955 40.2035 34.5763 40.4859L36.7185 42.6665C37.0886 42.3582 37.4567 42.0504 37.8145 41.7273C38.1724 41.4041 38.5067 41.0634 38.8284 40.7141Z" fill="#464646"/>
<g opacity="0.5">
<path opacity="0.5" d="M36.9313 34.9307C41.121 27.7865 39.1166 18.9813 32.4542 15.2637C25.7919 11.5462 16.9946 14.324 12.8049 21.4683C8.61519 28.6125 10.6196 37.4177 17.2819 41.1353C23.9443 44.8528 32.7416 42.0749 36.9313 34.9307Z" fill="#EBEBEB"/>
</g>
<g style="mix-blend-mode:screen" opacity="0.5">
<path d="M13.2766 30.1374C13.133 30.2709 12.9502 30.3567 12.7568 30.3812C12.523 30.4124 12.2909 30.3529 12.1116 30.216C11.9324 30.079 11.8206 29.8757 11.8009 29.6507C11.7235 28.7393 11.7451 27.8175 11.8653 26.9001C11.9134 26.6892 12.0405 26.4991 12.2215 26.3672C12.4025 26.2353 12.6243 26.1712 12.8434 26.1873C13.0625 26.2035 13.263 26.2988 13.4055 26.4546C13.5479 26.6104 13.6221 26.8153 13.6133 27.0291C13.5072 27.8263 13.4883 28.6276 13.5569 29.4196C13.569 29.5491 13.55 29.6811 13.5014 29.8056C13.4528 29.93 13.3759 30.0435 13.2766 30.1374Z" fill="white"/>
</g>
<g style="mix-blend-mode:screen" opacity="0.5">
<path d="M22.8385 40.5995C22.7315 40.6961 22.6032 40.7672 22.4647 40.8067C22.3262 40.8462 22.1817 40.8528 22.0437 40.826C20.1021 40.4662 18.2924 39.6829 16.7483 38.5341C15.2042 37.3853 13.9652 35.9003 13.1227 34.1888C13.0269 33.9895 13.0183 33.7572 13.0989 33.5426C13.1794 33.3279 13.3426 33.1482 13.5528 33.0427C13.7631 32.9372 14.0033 32.9143 14.2213 32.9791C14.4393 33.0439 14.6173 33.1912 14.7166 33.3887C15.4484 34.8745 16.5243 36.1638 17.8649 37.1613C19.2054 38.1588 20.7765 38.8391 22.4622 39.1521C22.6169 39.181 22.7583 39.2505 22.8713 39.3534C22.9842 39.4563 23.0645 39.5885 23.1036 39.7361C23.1426 39.8836 23.1389 40.0409 23.0928 40.191C23.0467 40.3411 22.9601 40.4785 22.8421 40.5883L22.8385 40.5995Z" fill="white"/>
</g>
<path d="M12.9208 16.053C10.3129 18.4792 8.46446 21.5633 7.60914 24.9151C6.75381 28.267 6.93007 31.7361 8.1156 34.8837C9.30113 38.0313 11.4427 40.716 14.2694 42.5982C17.0962 44.4805 20.4811 45.4758 23.9962 45.4582C27.5113 45.4406 30.9985 44.4109 34.017 42.4994C37.0354 40.5879 39.4494 37.8805 40.9537 34.7194C42.458 31.5584 42.985 28.0858 42.468 24.7408C41.9511 21.3958 40.4134 18.3287 38.0494 15.9273C34.8806 12.7076 30.453 10.912 25.7405 10.9356C21.028 10.9592 16.4167 12.8 12.9208 16.053ZM34.6749 38.1718C32.5334 40.1638 29.8646 41.5262 27.0061 42.0865C24.1476 42.6469 21.2277 42.3802 18.6156 41.32C16.0036 40.2599 13.8168 38.454 12.3317 36.1308C10.8466 33.8075 10.1299 31.0711 10.2723 28.2678C10.4147 25.4644 11.4098 22.72 13.1317 20.3815C14.8536 18.043 17.225 16.2155 19.946 15.13C22.6671 14.0446 25.6155 13.75 28.4184 14.2836C31.2214 14.8171 33.753 16.1547 35.6931 18.1273C36.9815 19.4369 37.9772 20.9943 38.6233 22.7104C39.2695 24.4266 39.5533 26.2679 39.4588 28.1293C39.3642 29.9907 38.8931 31.8356 38.0723 33.5587C37.2514 35.2818 36.097 36.8494 34.6749 38.1718Z" fill="#464646"/>
<path d="M42.8899 43.3314L39.1484 46.9226L56.0788 64.6671L59.8203 61.0758L42.8899 43.3314Z" fill="#464646"/>
<path d="M40.4143 45.5841L39.668 46.3005L56.7193 64.1725L57.4657 63.4561L40.4143 45.5841Z" fill="#464646"/>
<path d="M42.7933 43.3329L41.5566 44.52L58.5856 62.3686L59.8223 61.1815L42.7933 43.3329Z" fill="#464646"/>
</svg>

<svg width="61" height="78" fill="none" xmlns="http://www.w3.org/2000/svg"><path d="M36.265 38.028l-2.105 2.02 5.69 5.962 2.104-2.02-5.69-5.962z" fill="#464646"/><path d="M38.828 40.714l-2.136-2.182c-.316.354-.651.699-1.013 1.031-.362.332-.724.64-1.103.923l2.142 2.18c.37-.308.739-.616 1.096-.939.358-.323.693-.664 1.014-1.013z" fill="#464646"/><path opacity=".5" d="M36.931 34.93c4.19-7.143 2.186-15.949-4.477-19.666-6.662-3.718-15.46-.94-19.65 6.204-4.189 7.145-2.184 15.95 4.478 19.667 6.662 3.718 15.46.94 19.65-6.204z" fill="#EBEBEB"/><path d="M13.277 30.137a.94.94 0 01-.52.244.871.871 0 01-.645-.165.796.796 0 01-.311-.565 12.82 12.82 0 01.064-2.75.943.943 0 01.978-.713c.22.015.42.11.563.267.142.155.216.36.207.574a10.953 10.953 0 00-.056 2.39.845.845 0 01-.056.387.917.917 0 01-.224.331zM22.838 40.6a.946.946 0 01-.373.207.907.907 0 01-.421.019 12.748 12.748 0 01-5.296-2.292 12.04 12.04 0 01-3.625-4.345.821.821 0 01-.024-.646.929.929 0 01.454-.5.915.915 0 01.668-.064.807.807 0 01.496.41 10.46 10.46 0 003.148 3.772 11.075 11.075 0 004.597 1.991.833.833 0 01.41.201.79.79 0 01.232.383.828.828 0 01-.011.455.91.91 0 01-.25.397l-.005.011z" fill="#fff" opacity=".5"/><path d="M12.92 16.053c-2.607 2.426-4.456 5.51-5.31 8.862-.856 3.352-.68 6.821.506 9.969a16.054 16.054 0 006.153 7.714c2.827 1.883 6.212 2.878 9.727 2.86 3.515-.017 7.003-1.047 10.021-2.959 3.018-1.911 5.432-4.619 6.937-7.78 1.504-3.16 2.031-6.633 1.514-9.978a16.01 16.01 0 00-4.419-8.814c-3.168-3.22-7.596-5.015-12.308-4.991-4.713.023-9.324 1.864-12.82 5.117zm21.755 22.119a15.734 15.734 0 01-7.669 3.915c-2.858.56-5.778.293-8.39-.767-2.612-1.06-4.8-2.866-6.284-5.19-1.485-2.323-2.202-5.059-2.06-7.862.143-2.804 1.138-5.548 2.86-7.887a15.697 15.697 0 016.814-5.251c2.721-1.085 5.67-1.38 8.472-.846 2.803.533 5.335 1.87 7.275 3.843a13.119 13.119 0 012.93 4.583 13.43 13.43 0 01.836 5.42 14.324 14.324 0 01-1.387 5.429 15.295 15.295 0 01-3.397 4.613zm8.215 5.159l-3.742 3.592 16.93 17.744 3.742-3.591L42.89 43.33z" fill="#464646"/><path d="M40.414 45.584l-.746.716 17.051 17.873.747-.717-17.052-17.872zm2.379-2.251l-1.236 1.187 17.029 17.849 1.236-1.188-17.029-17.848z" fill="#464646"/></svg>
